X:193
T:Lady Duncannon's Fancy. THO5.193
M:6/8
L:1/8
B:Thompson's Complete Collection of 200 Favourite Dances Vol.5
F:https://www.libraryofdance.org/manuals/1780c-Thompson-Compleat-5.pdf
Z:vmp. Peter Dunk 2024
Q:3/8=110
K:D
F2F F2G|A2G FGA|Bcd efd|c3A3
f2e B2f|e2c A2e|dec BA^G|A3-A3:|
A2G F2A|G2F E2G|F2A d2F|F3 E3|
ABG F2G|ABG F2G|ABA AFD|E3 D3:|
W:
W:Fiert 3 Couple chassee and pass Rigadoon ./
W:lead back again ./
W:lead down the middle, pass Rigadoon, up again /.
W:Promenade 3 Couples ./:
W:cross over one Couple & right & left at top :/:

